X:1
T:Teach Me, O Lord, Your Way of Truth
T:Text: Psalm 119:33-36, 105-106, 129-132; vers. Psalter, 1912, alt. Tune: George J. Elvey, 1862
T:LM ST. CRISPIN www.hymnary.org/text/teach_me_o_lord_thy_way_of_truth
T:Teach Me, O Lord, Your Way of Truth
T:This hymn is in the public domain. You may freely use this score for personal and congregational worship. If you reproduce the score, please credit Hymnary.org as the source. 
T:This hymn is in the public domain. You may freely use this score for personal and congregational worship. If you reproduce the score, please credit Hymnary.org as the source. 
Z:This hymn is in the public domain. You may freely use this score for personal and congregational worship. If you reproduce the score, please credit Hymnary.org as the source.
%%score ( 1 2 ) ( 3 4 )
L:1/8
M:3/4
K:Eb
V:1 treble nm="SOPRANO ALTO" snm="S. A."
V:2 treble 
V:3 bass nm="TENOR BASS" snm="T. B."
V:4 bass 
V:1
"^1""^2""^3""^4""^5" G2 G2 G2 | B4 E2 | F4 F2 | G6 | B2 B2 B2 | e4 d2 | c4 c2 | B6 | B2 B2 B2 | %9
w: Teach me, O|Lord, your|way of|truth,|and from it|I will|not de-|part;|that I may|
w: In your com-|mand- ments|make me|walk,|for in your|law my|joy shall|be;|give me a|
w: Your word sheds|light up-|on my|path;|a shin- ing|light, it|guides my|feet;|your right- eous|
w: Your won- drous|tes- ti-|mo- nies,|Lord,|my soul will|keep and|great- ly|praise;|your word, by|
w: I thirst for|your com-|mand- ments,|Lord,|and for your|mer- cy|press my|claim;|O look on|
 B4 G2 |1 A4 A2 | A6 | G2 G2 G2 | G4 B2 | F4 F2 | E6 |] %16
w: stead- fast-|ly o-|bey,|give me an|un- der-|stand- ing|heart.|
w: heart that|loves your|will,|from dis- con-|tent and|en- vy|free.|
w: judg- ments|to ob-|serve,|my sol- emn|vow I|now re-|peat.|
w: faith- ful|lips pro-|claimed,|to sim- plest|minds the|truth con-|veys.|
w: me and|show the|grace|dis- played to|all who|love your|name.|
V:2
 E2 E2 E2 | E4 E2 | E4 D2 | E6 | F2 G2 F2 | E4 F2 | (G2 C2) E2 | D6 | D2 D2 D2 | =E4 E2 |1 F4 _E2 | %11
 D6 | E2 E2 F2 | E4 E2 | E4 D2 | B,6 |] %16
V:3
 B,2 B,2 B,2 | B,4 G,2 | C4 B,2 | B,6 | B,2 B,2 B,2 | =A,4 B,2 | B,4 =A,2 | B,6 | G,2 G,2 G,2 | %9
 G,4 C2 |1 C4 C2 | B,6 | B,2 B,2 =B,2 | C4 _B,2 | B,4 A,2 | G,6 |] %16
V:4
 E,2 E,2 E,2 | G,,4 C,2 | A,,4 B,,2 | E,6 | D,2 E,2 D,2 | C,4 B,,2 | E,4 F,2 | B,,6 | G,2 G,2 G,2 | %9
 C,4 C,2 |1 F,4 F,2 | B,,6 | E,2 E,2 D,2 | C,4 G,,2 | B,,4 B,,2 | E,6 |] %16

